img/logo-ecoethic-white.svg

<svg width="256" height="95" viewBox="0 0 256 95" fill="none" xmlns="http://www.w3.org/2000/svg">
<g clip-path="url(#clip0)">
<path d="M81.1466 25.117C85.1919 22.9434 87.9089 18.6566 87.9089 13.766V12.9208C87.9089 5.79623 82.1127 0 74.9881 0C67.8636 0 62.0674 5.79623 62.0674 12.9208V13.766C62.0674 18.8981 65.0862 23.366 69.4938 25.4189C65.4485 27.5925 62.7315 31.8792 62.7315 36.7698V58.6264C62.7315 65.7509 68.5278 71.5472 75.6523 71.5472C82.7768 71.5472 88.5731 65.7509 88.5731 58.6264V36.7698C88.5731 31.6377 85.5542 27.1698 81.1466 25.117ZM68.6485 13.7057V12.8604C68.6485 9.29811 71.5466 6.46038 75.0485 6.46038C78.6108 6.46038 81.4485 9.35849 81.4485 12.8604V13.7057C81.4485 17.2679 78.5504 20.1057 75.0485 20.1057C71.4863 20.166 68.6485 17.2679 68.6485 13.7057ZM75.6523 65.0264C72.09 65.0264 69.2523 62.1283 69.2523 58.6264V36.7698C69.2523 33.2075 72.1504 30.3698 75.6523 30.3698C79.1542 30.3698 82.0523 33.2679 82.0523 36.7698V58.6264C82.0523 62.1283 79.1542 65.0264 75.6523 65.0264Z" fill="white"/>
<path d="M44.4374 22.8228C37.3129 22.8228 31.5167 28.619 31.5167 35.7435V36.5888C31.5167 41.4794 34.2941 45.7662 38.279 47.9397C33.9318 49.9926 30.8525 54.4605 30.8525 59.5926V81.4492C30.8525 88.5737 36.6488 94.3699 43.7733 94.3699C50.8978 94.3699 56.6941 88.5737 56.6941 81.4492H50.2337C50.2337 85.0114 47.3356 87.8492 43.8337 87.8492C40.3318 87.8492 37.4337 84.9511 37.4337 81.4492V59.5926C37.4337 56.0303 40.3318 53.1926 43.8337 53.1926C47.3959 53.1926 50.2337 56.0907 50.2337 59.5926H56.7544C56.7544 54.702 53.9771 50.4152 49.9922 48.2416C54.3393 46.1888 57.3582 41.7209 57.3582 36.5888V35.7435C57.3582 28.619 51.562 22.8228 44.4374 22.8228ZM50.8374 36.5888C50.8374 40.1511 47.9393 42.9888 44.4374 42.9888C40.8752 42.9888 38.0374 40.0907 38.0374 36.5888V35.7435C38.0374 32.1812 40.9356 29.3435 44.4374 29.3435C47.9997 29.3435 50.8374 32.2416 50.8374 35.7435V36.5888Z" fill="white"/>
<path d="M20.4075 47.2755C26.2038 43.1698 27.5925 35.0792 23.4868 29.283C22.2792 27.5925 20.6491 26.2038 18.7774 25.2377C23.0038 23.1245 25.8415 18.717 25.8415 13.7057V12.8604C25.8415 5.79623 20.0453 0 12.9208 0C5.79623 0 0 5.79623 0 12.9208V13.766C0 18.7774 2.89811 23.1245 7.06415 25.2981C2.89811 27.4113 0 31.7585 0 36.7698V58.6264C0 65.7509 5.79623 71.5472 12.9208 71.5472C20.0453 71.5472 25.8415 65.7509 25.8415 58.6264H19.3208C19.3208 62.1887 16.4226 65.0264 12.9208 65.0264C9.35849 65.0264 6.52075 62.1283 6.52075 58.6264V57.1774L20.4075 47.2755ZM6.52075 13.7057V12.8604C6.52075 9.29811 9.41887 6.46038 12.9208 6.46038C16.483 6.46038 19.3208 9.35849 19.3208 12.8604V13.7057C19.3208 17.2679 16.4226 20.1057 12.9208 20.1057C9.35849 20.166 6.52075 17.2679 6.52075 13.7057ZM6.52075 36.7698C6.52075 33.2075 9.41887 30.3698 12.9208 30.3698C16.4226 30.3698 19.3208 33.2075 19.3208 36.7698C19.3208 38.7623 18.3547 40.7547 16.6038 41.9623L6.52075 49.1472V36.7698Z" fill="white"/>
<path d="M126.612 30.4307V37.3137H107.049V45.2835H125.042V51.6231H107.049V60.7401H127.034V67.6231H98.8984V30.4307H126.612Z" fill="white"/>
<path d="M130.898 37.3137V30.4307H161.268V37.3137H150.159V67.5627H142.008V37.3137H130.898Z" fill="white"/>
<path d="M174.914 30.4307V44.6797H189.948V30.4307H198.099V67.5024H189.948V51.5627H174.914V67.5627H166.763V30.4307H174.914Z" fill="white"/>
<path d="M214.643 30.4307V67.5024H206.492V30.4307H214.643Z" fill="white"/>
<path d="M246.823 40.3323C246.34 39.5474 245.736 38.8832 245.012 38.2794C244.287 37.6757 243.442 37.253 242.536 36.8908C241.631 36.5889 240.665 36.4077 239.638 36.4077C237.827 36.4077 236.257 36.77 234.989 37.4945C233.721 38.2191 232.695 39.1851 231.85 40.3323C231.065 41.5398 230.461 42.8681 230.099 44.4379C229.736 45.9474 229.555 47.5172 229.555 49.1474C229.555 50.7172 229.736 52.2266 230.099 53.6757C230.461 55.1247 231.065 56.453 231.85 57.6606C232.634 58.8077 233.661 59.7738 234.989 60.4983C236.257 61.2228 237.827 61.5851 239.638 61.5851C242.114 61.5851 244.106 60.8002 245.495 59.2908C246.884 57.7813 247.729 55.7889 248.091 53.253H256.001C255.819 55.5474 255.276 57.6606 254.37 59.5323C253.525 61.404 252.378 62.9738 250.929 64.3021C249.48 65.6304 247.85 66.5964 245.917 67.3209C243.985 67.9851 241.933 68.3474 239.638 68.3474C236.801 68.3474 234.265 67.8643 231.97 66.8379C229.676 65.8115 227.804 64.4832 226.234 62.7323C224.665 60.9813 223.457 58.9889 222.672 56.6342C221.887 54.2794 221.404 51.804 221.404 49.087C221.404 46.3096 221.827 43.7738 222.672 41.3587C223.517 39.004 224.725 36.8908 226.234 35.1398C227.744 33.3889 229.676 32.0002 231.97 30.9738C234.265 29.9474 236.801 29.4644 239.638 29.4644C241.691 29.4644 243.623 29.7662 245.434 30.37C247.246 30.9738 248.876 31.8191 250.325 32.9662C251.774 34.1134 252.921 35.5021 253.887 37.1323C254.793 38.8228 255.397 40.6945 255.638 42.8681H247.729C247.608 41.9625 247.306 41.1172 246.823 40.3323Z" fill="white"/>
<path d="M253.524 81.9321H64.3018V88.7548H253.524V81.9321Z" fill="white"/>
<path d="M23.0038 84.8906H0V91.7133H23.0038V84.8906Z" fill="white"/>
</g>
<defs>
<clipPath id="clip0">
<rect width="256" height="94.3698" fill="white"/>
</clipPath>
</defs>
</svg>

<svg width="256" height="95" fill="none" xmlns="http://www.w3.org/2000/svg"><g clip-path="url(#clip0)" fill="#fff"><path d="M81.147 25.117a12.87 12.87 0 006.762-11.351v-.845C87.909 5.796 82.113 0 74.989 0c-7.125 0-12.922 5.796-12.922 12.92v.846c0 5.132 3.02 9.6 7.427 11.653a12.869 12.869 0 00-6.763 11.35v21.857c0 7.125 5.797 12.921 12.921 12.921 7.125 0 12.921-5.796 12.921-12.92V36.77c0-5.132-3.019-9.6-7.426-11.653zM68.648 13.706v-.846c0-3.562 2.899-6.4 6.4-6.4 3.563 0 6.4 2.898 6.4 6.4v.846c0 3.562-2.898 6.4-6.4 6.4-3.562.06-6.4-2.838-6.4-6.4zm7.004 51.32c-3.562 0-6.4-2.898-6.4-6.4V36.77c0-3.563 2.898-6.4 6.4-6.4 3.502 0 6.4 2.898 6.4 6.4v21.856c0 3.502-2.898 6.4-6.4 6.4zM44.437 22.823c-7.124 0-12.92 5.796-12.92 12.92v.846c0 4.89 2.777 9.177 6.762 11.35-4.347 2.054-7.427 6.522-7.427 11.654v21.856c0 7.125 5.797 12.92 12.921 12.92 7.125 0 12.921-5.795 12.921-12.92h-6.46c0 3.562-2.898 6.4-6.4 6.4-3.502 0-6.4-2.898-6.4-6.4V59.593c0-3.563 2.898-6.4 6.4-6.4 3.562 0 6.4 2.898 6.4 6.4h6.52c0-4.891-2.777-9.178-6.762-11.351a12.903 12.903 0 007.366-11.653v-.846c0-7.124-5.796-12.92-12.92-12.92zm6.4 13.766c0 3.562-2.898 6.4-6.4 6.4-3.562 0-6.4-2.898-6.4-6.4v-.846c0-3.562 2.899-6.4 6.4-6.4 3.563 0 6.4 2.899 6.4 6.4v.846zM20.407 47.276c5.797-4.106 7.186-12.197 3.08-17.993-1.208-1.69-2.838-3.08-4.71-4.045 4.227-2.113 7.064-6.521 7.064-11.532v-.846C25.841 5.796 20.046 0 12.921 0 5.796 0 0 5.796 0 12.92v.846c0 5.011 2.898 9.359 7.064 11.532C2.898 27.411 0 31.758 0 36.77v21.856c0 7.125 5.796 12.921 12.92 12.921 7.125 0 12.921-5.796 12.921-12.92h-6.52c0 3.562-2.898 6.4-6.4 6.4-3.563 0-6.4-2.899-6.4-6.4v-1.45l13.886-9.901zM6.521 13.706v-.846c0-3.562 2.898-6.4 6.4-6.4 3.562 0 6.4 2.898 6.4 6.4v.846c0 3.562-2.898 6.4-6.4 6.4-3.563.06-6.4-2.838-6.4-6.4zm0 23.064c0-3.563 2.898-6.4 6.4-6.4 3.502 0 6.4 2.838 6.4 6.4a6.335 6.335 0 01-2.717 5.192L6.52 49.147V36.77zM126.612 30.43v6.884h-19.563v7.97h17.993v6.34h-17.993v9.116h19.985v6.883H98.898V30.431h27.714zM130.898 37.314V30.43h30.37v6.883h-11.109v30.249h-8.151v-30.25h-11.11zM174.914 30.43v14.25h15.034V30.43h8.151v37.072h-8.151v-15.94h-15.034v16h-8.151V30.432h8.151zM214.643 30.43v37.072h-8.151V30.431h8.151zM246.823 40.332c-.483-.785-1.087-1.449-1.811-2.053-.725-.603-1.57-1.026-2.476-1.388a9.109 9.109 0 00-2.898-.483c-1.811 0-3.381.362-4.649 1.087-1.268.724-2.294 1.69-3.139 2.837a12.59 12.59 0 00-1.751 4.106 20.074 20.074 0 00-.544 4.71c0 1.57.181 3.079.544 4.528a13.128 13.128 0 001.751 3.985 8.923 8.923 0 003.139 2.837c1.268.725 2.838 1.087 4.649 1.087 2.476 0 4.468-.785 5.857-2.294 1.389-1.51 2.234-3.502 2.596-6.038h7.91c-.182 2.294-.725 4.408-1.631 6.28a14.424 14.424 0 01-3.441 4.77c-1.449 1.327-3.079 2.293-5.012 3.018-1.932.664-3.984 1.026-6.279 1.026-2.837 0-5.373-.483-7.668-1.51-2.294-1.026-4.166-2.354-5.736-4.105-1.569-1.75-2.777-3.743-3.562-6.098-.785-2.355-1.268-4.83-1.268-7.547 0-2.777.423-5.313 1.268-7.728.845-2.355 2.053-4.468 3.562-6.22 1.51-1.75 3.442-3.139 5.736-4.165 2.295-1.027 4.831-1.51 7.668-1.51 2.053 0 3.985.302 5.796.906 1.812.604 3.442 1.45 4.891 2.596 1.449 1.147 2.596 2.536 3.562 4.166.906 1.69 1.51 3.563 1.751 5.736h-7.909a6.407 6.407 0 00-.906-2.536zM253.524 81.932H64.302v6.823h189.222v-6.823zM23.004 84.89H0v6.823h23.004v-6.822z"/></g><defs><clipPath id="clip0"><path fill="#fff" d="M0 0h256v94.37H0z"/></clipPath></defs></svg>
